X:200
T:Irish Widow THO4.200, The
M:6/8
L:1/8
Z:vmp. Peter Dunk 2010/11.from a transcription by Fynn Titford-Mock 2007
B:Thompson's Compleat Collection of 200 Favourite Country Dances Volume IV.
Q:3/8=110
K:F
A/B/|cAF cAF|D3d3|cBA GFE|F3 E2::A/B/|cAF cAF|D3d3|cBA GFE|F3-F2:|
|:A/B/|cdc fga|cdc cAB|cdc fga|cdc cAB|cAF cAF|D3d3|cBA GFE|F3-F2:|


